X:268
T:Old Bush
Z: id:dc-reel-248
M:C
L:1/8
K:D Mixolydian
dc|A2GA cAAG|Adde fdec|A2GA c2Ac|d2ed cAdc|!
A2GA cAAG|Adde f3g|afge fde^c|dfed cA:|!
Af|efgf edcd|efge c3d|efge afge|d2ed cAAf|!
efge afge|fde^c defg|afge fde^c|dfed cA:|!